X:1
L:1/8
M:2/2
K:A
 (3efg | a2 AA A2 Ac | BAGB A2 !slide![ce]2 | (d B2) B- BcBA | GABc defg | a2 AA A2 Ac | 
 BAGB ABcA | d2 fg afed |1 cABG A2 :|2 cABG [AA]3 |: E2 | E(E [Ec]2) E(E [Ec]2) | E2 cd cBAG | 
 F2 [Fd][Fd] F2 [Fd][Fd] | F2 de dcBA | E(E [Ec]2) E(E [Ec]2) | E2 cd cBAc | e2 fg afed |1 
 cABG [AA]2 :|2 cABG A2 A2 |: ([ce-] [ee]2) f ecBA | dcde fgae | ([ce-] [ee]2) f ecAc | dcBA GBeB | 
 ([ce-] [ee]2) f ecBA | dcde fgae | gabg aecA |1 dcBG A2 A2 :|2 dcBG A2 ||
